.files/icons/devices/Radio.svg

<svg fill="none" height="48" viewBox="0 0 48 48" width="48" xmlns="http://www.w3.org/2000/svg"><g fill="#000"><g clip-rule="evenodd" fill-rule="evenodd"><path d="m6 14c-1.10457 0-2 .8954-2 2v24c0 1.1046.89543 2 2 2h36c1.1046 0 2-.8954 2-2v-24c0-1.1046-.8954-2-2-2zm18 14c0 4.4183 3.5817 8 8 8s8-3.5817 8-8-3.5817-8-8-8-8 3.5817-8 8z" opacity=".3"/><path d="m41.2058 14c-.1155-.5454-.4572-1.0399-.9823-1.3329l-22.249-12.413647c-.9646-.538185-2.1829-.1925164-2.721.772077-.5382.96458-.1926 2.18282.772 2.72101l18.3773 10.25346z"/><path d="m32 32c2.2091 0 4-1.7909 4-4s-1.7909-4-4-4-4 1.7909-4 4 1.7909 4 4 4z"/></g><rect height="4" opacity=".3" rx="1" width="10" x="8" y="22"/><rect height="4" opacity=".3" rx="1" width="10" x="8" y="30"/></g></svg>

<svg width="48" height="48" viewBox="0 0 48 48" fill="none" xmlns="http://www.w3.org/2000/svg">
<path opacity="0.3" fill-rule="evenodd" clip-rule="evenodd" d="M6 14C4.89543 14 4 14.8954 4 16V40C4 41.1046 4.89543 42 6 42H42C43.1046 42 44 41.1046 44 40V16C44 14.8954 43.1046 14 42 14H6ZM24 28C24 32.4183 27.5817 36 32 36C36.4183 36 40 32.4183 40 28C40 23.5817 36.4183 20 32 20C27.5817 20 24 23.5817 24 28Z" fill="black"/>
<path fill-rule="evenodd" clip-rule="evenodd" d="M41.2058 14C41.0903 13.4546 40.7486 12.9601 40.2235 12.6671L17.9745 0.253453C17.0099 -0.284732 15.7916 0.0609366 15.2535 1.02553C14.7153 1.99011 15.0609 3.20835 16.0255 3.74654L34.4028 14H41.2058Z" fill="black"/>
<path fill-rule="evenodd" clip-rule="evenodd" d="M32 32C34.2091 32 36 30.2091 36 28C36 25.7909 34.2091 24 32 24C29.7909 24 28 25.7909 28 28C28 30.2091 29.7909 32 32 32Z" fill="black"/>
<rect opacity="0.3" x="8" y="22" width="10" height="4" rx="1" fill="black"/>
<rect opacity="0.3" x="8" y="30" width="10" height="4" rx="1" fill="black"/>
</svg>
